X:1
T:Somewhere Tonight
T:Somewhere Tonight
T:Daniel Brink Towner
T:Robert Marshall Offord, 1887
T:Public Domain Courtesy of the Cyber Hymnal™
T:Public Domain Courtesy of the Cyber Hymnal™
C:Daniel Brink Towner
Z:Public Domain
Z:Courtesy of the Cyber Hymnal™
%%score ( 1 2 ) ( 3 4 )
L:1/8
Q:1/4=93
M:6/8
K:Ab
V:1 treble 
V:2 treble 
V:3 bass 
V:4 bass 
V:1
 [CE] | [CE]2 [CE] [DF]2 [DF] | [CE]3 [CA]3 | [CA][DG]>[DF] [DG]3 | [EB][EA]>[EG] [EA]3 | %5
w: 1.~A|mo- ther dear is|weep- ing,|Some- where to- night,|some- where to- night;|
w: 2.~A|mo- ther’s low- ly|bend- ing,|Some- where to- night,|some- where to- night;|
w: 3.~A|mo- ther’s heart is|break- ing,|Some- where to- night,|some- where to- night;|
w: 4.~A|mo- ther still is|plead- ing,|Some- where to- night,|some- where to- night;|
 [DF][DF][DF] [FA][EG][DF] | [DF]2 [CE] [CE]3 | [EG][EG][EG] [EG][EA][DB] | [DB]2 [CA] [CA]2 [CE] | %9
w: Ma- ny and bit- ter the|tears she weeps,|Wea- ry the vi- gil and|sad she keeps. For,|
w: Bow- ing and plead- ing with|God in prayer,|Bring- ing to Je- sus her|load of care. She|
w: Break- ing with sor- row, with|shame and grief.|When shall she find for her|soul re- lief? A-|
w: Plead- ing, still plead- ing, for|one a- stray,|Mak- ing the prom- ise of|God her stay, While|
 [DF]2 [DF] [DF][EG][FA] | [EA]2 [EA] [CE]2 [EA] | [EG]2 [EG] [EG][EA][DB] | %12
w: oh, she griev- eth by|night and day For|one that wan- der- eth|
w: prays as mo- ther a-|lone can pray For|one that wan- der- eth|
w: las! for her there can|be no peace Un-|til her dar- ling to|
w: faith and hope in her|bo- som burn. Oh!|come, thou wan- der- ing|
 [DB]2 [CA] [CA]2 [DF] | [CE]3 E3 | [CE]6 ||"^Refrain" [Ec]3 [Ec][DB][CA] | [DG]6 | %17
w: far a- way From|God and|right.|||
w: far a- way From|God and|right.|O wan- der- ing|one,|
w: wan- der cease From|God and|right.|||
w: one, re- turn To|God and|right.|||
 [Bd]3 [Bd][Ac][Bd] | [GB]6 | [Ac]3 [Ac][Gd][_Ge] | (e2 d) [Fc]2 [FB] | [EA]3 [Ec]2 [DB] | [CA]6 |] %23
w: ||||||
w: list, list to the|plea,|Thy mo- ther is|pray- * ing, is|pray- ing for|thee.|
w: ||||||
w: ||||||
V:2
 x | x6 | x6 | x6 | x6 | x6 | x6 | x6 | x6 | x6 | x6 | x6 | x6 | x3 (B,2 D) | x6 || x6 | x6 | x6 | %18
 x6 | x6 | F3 x3 | x6 | x6 |] %23
V:3
 [A,,A,] | [A,,A,]2 [A,,A,] [A,,A,]2 [A,,A,] | [A,,A,]3 [A,,E,]3 | E,[E,B,]>[E,B,] [E,B,]3 | %4
w: ~|~ ~ ~ ~|~ ~|~ ~ ~ ~|
 [A,,D][A,,C]>[A,,C] [A,,C]3 | [D,A,][D,A,][D,A,] [D,D][D,D][D,A,] | [A,,A,]2 [A,,A,] [A,,A,]3 | %7
w: ~ ~ ~ ~|~ ~ ~ ~ ~ ~|~ ~ ~|
 [E,D][E,D][E,D] [E,D][E,C][E,E] | [A,,E]2 [A,,E] [A,,E]2 [A,,A,] | %9
w: ~ ~ ~ ~ ~ ~|~ ~ ~ ~|
 [D,A,]2 [D,A,] [D,A,][D,A,][D,A,] | [A,,C]2 [A,,C] [A,,A,]2 [A,,C] | %11
w: ~ ~ ~ ~ ~|~ ~ ~ ~|
 [E,D]2 [E,D] [E,D][E,C][E,E] | [A,,E]2 [A,,E] [A,,E]2 [D,A,] | [E,A,]3 [E,G,]3 | [A,,A,]6 || z6 | %16
w: ~ ~ ~ ~ ~|~ ~ ~ ~|~ ~|~||
 [E,B,][E,B,][E,B,] [E,B,]3 | z6 | [E,E][E,E][E,E] [E,E]3 | [A,,E]3 [A,,E][B,,E][C,A,] | %20
w: Wan- der- ing one,||List to the plea||
 [D,A,]3 [D,A,]2 [D,D] | [E,C]3 [E,A,]2 [E,G,] | [A,,A,]6 |] %23
w: |||
V:4
 x | x6 | x6 | E, x5 | x6 | x6 | x6 | x6 | x6 | x6 | x6 | x6 | x6 | x6 | x6 || x6 | x6 | x6 | x6 | %19
 x6 | x6 | x6 | x6 |] %23

